dist/img/svg/ic_phone.svg

<svg width="28" height="28" viewBox="0 0 28 28" fill="none" xmlns="http://www.w3.org/2000/svg">
<path d="M12.6988 8.81668L9.65408 5.30239C9.30309 4.89741 8.65959 4.89921 8.25189 5.30779L5.74811 7.81594C5.00291 8.56199 4.78961 9.66983 5.22071 10.5581C7.79615 15.8902 12.0967 20.1966 17.4255 22.7793C18.3129 23.2104 19.4199 22.9971 20.1651 22.2511L22.6923 19.7195C23.1018 19.31 23.1027 18.663 22.6941 18.312L19.1661 15.2837C18.7971 14.9669 18.2238 15.0083 17.8539 15.3791L16.6263 16.6084C16.5635 16.6743 16.4808 16.7177 16.3909 16.732C16.301 16.7463 16.2088 16.7307 16.1286 16.6876C14.1221 15.5322 12.4576 13.8656 11.3047 11.8576C11.2615 11.7773 11.2459 11.685 11.2602 11.595C11.2745 11.5049 11.3179 11.422 11.3839 11.359L12.6079 10.1342C12.9787 9.76162 13.0192 9.18566 12.6988 8.81578V8.81668Z" stroke="#999" stroke-width="2" stroke-linecap="round" stroke-linejoin="round"/>
</svg>

<svg width="28" height="28" viewBox="0 0 28 28" fill="none" xmlns="http://www.w3.org/2000/svg"><path d="M12.699 8.817L9.654 5.302c-.35-.405-.994-.403-1.402.006L5.748 7.816c-.745.746-.958 1.854-.527 2.742A26.285 26.285 0 0017.425 22.78c.888.431 1.995.218 2.74-.528l2.527-2.532c.41-.409.41-1.056.002-1.407l-3.528-3.028c-.369-.317-.942-.276-1.312.095l-1.228 1.23a.415.415 0 01-.497.079 13.101 13.101 0 01-4.824-4.83.416.416 0 01.079-.499l1.224-1.225c.37-.372.411-.948.09-1.318v0z" stroke="#999" stroke-width="2" stroke-linecap="round" stroke-linejoin="round"/></svg>
